web/assets/logo.svg

<svg viewBox="0 0 50 55" xmlns="http://www.w3.org/2000/svg" xmlns:xlink="http://www.w3.org/1999/xlink"><linearGradient id="a" x1="0%" x2="0%" y1="0%" y2="100%"><stop offset="0" stop-color="#f96"/><stop offset="1" stop-color="#ff8068"/></linearGradient><mask id="b"><g fill="#fff"><g transform="translate(1.61987)"><path d="m38.5529158.0327381c3.0669546 3.23015873 5.4427645 7.22420634 6.8142548 11.796627 4.6328294 15.4742063-4.0388769 31.8214286-19.3520518 36.4920635-7.6889849 2.3462301-15.5831534 1.3095238-22.12742982-2.2589286l-2.57019438 4.8452381c7.21382289 4.0813492 16.0043197 5.3144841 24.5464363 2.7063492 16.6846652-5.0962302 26.1231101-22.8948413 21.0799136-39.7549603-1.6306696-5.45634922-4.5788337-10.14880954-8.3909287-13.8263889z"/><ellipse cx="2.796976" cy="48.594246" rx="2.710583" ry="2.739087"/></g><g transform="translate(0 12.331349)"><path d="m46.2311015.05456349c.8531318 3.4811508.9179266 7.20238095.0539957 10.93452381-2.9157667 12.593254-15.3887689 20.406746-27.8509719 17.4603175-6.2526998-1.484127-11.31749463-5.3908731-14.43844495-10.5089286l-3.69330454 2.3134921c3.38012959 5.750992 8.98488121 10.1488095 15.93952479 11.7966269 13.5745141 3.2192461 27.1598273-5.3035714 30.3455724-19.0208333 1.0259179-4.44146825.8315335-8.8829365-.3563715-12.97519841z"/><ellipse cx="2.24622" cy="19.25" rx="2.170626" ry="2.193452"/></g><g transform="translate(5.831533 15.605159)"><path d="m39.838013 6.30753968c-.788337 2.75-2.2138229 5.35813492-4.2872571 7.59523812-7.0086393 7.5406746-18.7473002 7.922619-26.2095032.8402778-3.74730022-3.5575397-5.70194384-8.30456354-5.84233261-13.11706354l-3.47732182.10912699c.06479482 5.34722222 2.20302376 10.66170635 6.37149028 14.61210315 8.13174945 7.7152778 20.91792655 7.311508 28.55291575-.9166666 2.462203-2.6517858 4.0928726-5.8055556 4.8920087-9.12301592z"/><ellipse cx="1.760259" cy="1.822421" rx="1.738661" ry="1.756944"/></g><g transform="translate(14.25486 7.420635)"><path d="m27.8725702 20.0029762c-1.6306696 1.5823413-3.6609071 2.8154762-5.9827214 3.5248016-7.8401728 2.3898809-16.12311014-2.0843254-18.48812094-10.0178572-1.18790497-3.97222219-.6587473-8.06448409 1.14470843-11.4474206l-2.45140389-1.33134921c-2.07343413 3.73214286-2.68898488 8.2827381-1.37149028 12.70238091 2.58099352 8.6319445 11.59827218 13.5208334 20.14038878 10.9126985 2.7645788-.8402778 5.1403888-2.3680556 7.0086393-4.343254z"/><ellipse cx="3.272138" cy="1.505952" rx="1.393089" ry="1.407738"/></g></g></mask><path d="m0 0h50v55h-50z" fill="url(#a)" mask="url(#b)"/></svg>

<svg viewBox="0 0 50 55" version="1.1" xmlns="http://www.w3.org/2000/svg" xmlns:xlink="http://www.w3.org/1999/xlink">
    <defs>
        <linearGradient id="grad1" x1="0%" y1="0%" x2="0%" y2="100%">
            <stop offset="0%" style="stop-color:#FF9966;stop-opacity:1" />
            <stop offset="100%" style="stop-color:#FF8068;stop-opacity:1" />
        </linearGradient>
    </defs>
    <mask id="logo">
        <g id="Page-1" stroke="none" stroke-width="1" fill="none" fill-rule="evenodd">
            <g id="splash-logo-gradient" transform="translate(-22.000000, -1.000000)" fill="#FFFFFF" fill-rule="nonzero">
                <g id="Rectangle" transform="translate(0.000000, 0.563492)">
                    <g id="Mask" transform="translate(0.000000, 0.436508)">
                        <g id="Symbol" transform="translate(22.000000, 0.000000)">
                            <g id="Rectangle">
                                <g id="Mask">
                                    <g id="Group" transform="translate(1.619870, 0.000000)">
                                        <path d="M38.5529158,0.0327380952 C41.6198704,3.26289683 43.9956803,7.25694444 45.3671706,11.8293651 C50,27.3035714 41.3282937,43.6507937 26.0151188,48.3214286 C18.3261339,50.6676587 10.4319654,49.6309524 3.88768898,46.0625 L1.3174946,50.9077381 C8.53131749,54.9890873 17.3218143,56.2222222 25.8639309,53.6140873 C42.5485961,48.5178571 51.987041,30.719246 46.9438445,13.859127 C45.3131749,8.40277778 42.3650108,3.71031746 38.5529158,0.0327380952 Z" id="Path"></path>
                                        <ellipse id="Oval" cx="2.79697624" cy="48.594246" rx="2.71058315" ry="2.7390873"></ellipse>
                                    </g>
                                    <g id="Group" transform="translate(0.000000, 12.331349)">
                                        <path d="M46.2311015,0.0545634921 C47.0842333,3.53571429 47.1490281,7.25694444 46.2850972,10.9890873 C43.3693305,23.5823413 30.8963283,31.3958333 18.4341253,28.4494048 C12.1814255,26.9652778 7.11663067,23.0585317 3.99568035,17.9404762 L0.30237581,20.2539683 C3.6825054,26.0049603 9.28725702,30.4027778 16.2419006,32.0505952 C29.8164147,35.2698413 43.4017279,26.7470238 46.587473,13.0297619 C47.6133909,8.58829365 47.4190065,4.1468254 46.2311015,0.0545634921 Z" id="Path"></path>
                                        <ellipse id="Oval" cx="2.2462203" cy="19.25" rx="2.17062635" ry="2.19345238"></ellipse>
                                    </g>
                                    <g id="Group" transform="translate(5.831533, 15.605159)">
                                        <path d="M39.838013,6.30753968 C39.049676,9.05753968 37.6241901,11.6656746 35.5507559,13.9027778 C28.5421166,21.4434524 16.8034557,21.8253968 9.3412527,14.7430556 C5.59395248,11.1855159 3.63930886,6.43849206 3.49892009,1.62599206 L0.0215982721,1.73511905 C0.0863930886,7.08234127 2.22462203,12.3968254 6.39308855,16.3472222 C14.524838,24.0625 27.3110151,23.6587302 34.9460043,15.4305556 C37.4082073,12.7787698 39.0388769,9.625 39.838013,6.30753968 Z" id="Path"></path>
                                        <ellipse id="Oval" cx="1.76025918" cy="1.82242063" rx="1.73866091" ry="1.75694444"></ellipse>
                                    </g>
                                    <g id="Group" transform="translate(14.254860, 7.420635)">
                                        <path d="M27.8725702,20.0029762 C26.2419006,21.5853175 24.2116631,22.8184524 21.8898488,23.5277778 C14.049676,25.9176587 5.76673866,21.4434524 3.40172786,13.5099206 C2.21382289,9.53769841 2.74298056,5.44543651 4.54643629,2.0625 L2.0950324,0.731150794 C0.0215982721,4.46329365 -0.593952484,9.01388889 0.723542117,13.4335317 C3.30453564,22.0654762 12.3218143,26.9543651 20.8639309,24.3462302 C23.6285097,23.5059524 26.0043197,21.9781746 27.8725702,20.0029762 Z" id="Path"></path>
                                        <ellipse id="Oval" cx="3.27213823" cy="1.50595238" rx="1.39308855" ry="1.4077381"></ellipse>
                                    </g>
                                </g>
                            </g>
                        </g>
                    </g>
                </g>
            </g>
        </g>
    </mask>
    <rect width="50" height="55" fill="url(#grad1)" mask="url(#logo)" />
</svg>
